X: 478
T: Szekely Friss
O: Hungary
M: 2/4
L: 1/8
Q: 1/4=132
K: C
"C"eee2     |gfe2         |gfed             |ecc/2d/2e|\
eee2        |gfe2         |gfed             |ecc2     |:
"G"BBB/2c/2d|"Am"ccc/2d/2e|ff"F"f/2g/2a     |"C"ggg2  |\
"G"BBB/2c/2d|"Am"ccc/2d/2e|e/2d/2c"G"d/2c/2B|"Am"AAA2 :|



